src/assets/outline/CardEdit.svg

<svg width="24" height="24" viewBox="0 0 24 24"  xmlns="http://www.w3.org/2000/svg">
<path d="M11.5 9.25H2C1.59 9.25 1.25 8.91 1.25 8.5C1.25 8.09 1.59 7.75 2 7.75H11.5C11.91 7.75 12.25 8.09 12.25 8.5C12.25 8.91 11.91 9.25 11.5 9.25Z" />
<path d="M8 17.25H6C5.59 17.25 5.25 16.91 5.25 16.5C5.25 16.09 5.59 15.75 6 15.75H8C8.41 15.75 8.75 16.09 8.75 16.5C8.75 16.91 8.41 17.25 8 17.25Z" />
<path d="M14.5 17.25H10.5C10.09 17.25 9.75 16.91 9.75 16.5C9.75 16.09 10.09 15.75 10.5 15.75H14.5C14.91 15.75 15.25 16.09 15.25 16.5C15.25 16.91 14.91 17.25 14.5 17.25Z" />
<path d="M17.56 21.25H6.44C2.46 21.25 1.25 20.05 1.25 16.11V7.89C1.25 3.95 2.46 2.75 6.44 2.75H14.5C14.91 2.75 15.25 3.09 15.25 3.5C15.25 3.91 14.91 4.25 14.5 4.25H6.44C3.3 4.25 2.75 4.79 2.75 7.89V16.1C2.75 19.2 3.3 19.74 6.44 19.74H17.55C20.69 19.74 21.24 19.2 21.24 16.1V12.02C21.24 11.61 21.58 11.27 21.99 11.27C22.4 11.27 22.74 11.61 22.74 12.02V16.1C22.75 20.05 21.54 21.25 17.56 21.25Z" />
<path d="M15.5199 11.44C15.1299 11.44 14.7599 11.3 14.4999 11.03C14.1799 10.71 14.0399 10.25 14.1099 9.76999L14.3099 8.34999C14.3599 7.98999 14.5799 7.55999 14.8299 7.30999L18.5399 3.59999C20.0099 2.12999 21.2899 2.96999 21.9299 3.59999C22.5599 4.22999 23.3999 5.50999 21.9299 6.98999L18.2199 10.7C17.9599 10.96 17.5299 11.17 17.1799 11.22L15.7599 11.42C15.6799 11.43 15.5999 11.44 15.5199 11.44ZM20.2299 4.27999C20.0299 4.27999 19.8499 4.41999 19.5999 4.65999L15.8999 8.36999C15.8699 8.40999 15.8099 8.51999 15.7999 8.56999L15.5999 9.91999L16.9599 9.72999C17.0099 9.71999 17.1199 9.65999 17.1599 9.62999L20.8699 5.91999C21.3399 5.44999 21.4099 5.18999 20.8699 4.65999C20.6099 4.39999 20.4199 4.27999 20.2299 4.27999Z" />
<path d="M20.8702 7.73999C20.8002 7.73999 20.7302 7.73 20.6702 7.71C19.3002 7.31999 18.2102 6.23999 17.8302 4.86999C17.7202 4.46999 17.9502 4.05999 18.3502 3.93999C18.7502 3.82999 19.1602 4.05999 19.2802 4.45999C19.5302 5.32999 20.2202 6.01999 21.0902 6.26999C21.4902 6.37999 21.7202 6.79999 21.6102 7.19C21.5002 7.51999 21.2002 7.73999 20.8702 7.73999Z" />
</svg>

<?xml version="1.0" encoding="UTF-8"?>
<svg width="24" height="24" viewBox="0 0 24 24" xmlns="http://www.w3.org/2000/svg">
 <path d="m11.5 9.25h-9.5c-0.41 0-0.75-0.34-0.75-0.75s0.34-0.75 0.75-0.75h9.5c0.41 0 0.75 0.34 0.75 0.75s-0.34 0.75-0.75 0.75z"/>
 <path d="m8 17.25h-2c-0.41 0-0.75-0.34-0.75-0.75s0.34-0.75 0.75-0.75h2c0.41 0 0.75 0.34 0.75 0.75s-0.34 0.75-0.75 0.75z"/>
 <path d="m14.5 17.25h-4c-0.41 0-0.75-0.34-0.75-0.75s0.34-0.75 0.75-0.75h4c0.41 0 0.75 0.34 0.75 0.75s-0.34 0.75-0.75 0.75z"/>
 <path d="m17.56 21.25h-11.12c-3.98 0-5.19-1.2-5.19-5.14v-8.22c0-3.94 1.21-5.14 5.19-5.14h8.06c0.41 0 0.75 0.34 0.75 0.75s-0.34 0.75-0.75 0.75h-8.06c-3.14 0-3.69 0.54-3.69 3.64v8.21c0 3.1 0.55 3.64 3.69 3.64h11.11c3.14 0 3.69-0.54 3.69-3.64v-4.08c0-0.41 0.34-0.75 0.75-0.75s0.75 0.34 0.75 0.75v4.08c0.01 3.95-1.2 5.15-5.18 5.15z"/>
 <path d="m15.52 11.44c-0.39 0-0.76-0.14-1.02-0.41-0.32-0.32-0.46-0.78-0.39-1.26l0.2-1.42c0.05-0.36 0.27-0.79 0.52-1.04l3.71-3.71c1.47-1.47 2.75-0.63 3.39 0 0.63 0.63 1.47 1.91 0 3.39l-3.71 3.71c-0.26 0.26-0.69 0.47-1.04 0.52l-1.42 0.2c-0.08 0.01-0.16 0.02-0.24 0.02zm4.71-7.16c-0.2 0-0.38 0.14-0.63 0.38l-3.7 3.71c-0.03 0.04-0.09 0.15-0.1 0.2l-0.2 1.35 1.36-0.19c0.05-0.01 0.16-0.07 0.2-0.1l3.71-3.71c0.47-0.47 0.54-0.73 0-1.26-0.26-0.26-0.45-0.38-0.64-0.38z"/>
 <path d="m20.87 7.74c-0.07 0-0.14-0.00999-0.2-0.02999-1.37-0.39001-2.46-1.47-2.84-2.84-0.11-0.4 0.12-0.81 0.52-0.93 0.4-0.11 0.81 0.12 0.93 0.52 0.25 0.87 0.94 1.56 1.81 1.81 0.4 0.11 0.63 0.53 0.52 0.92001-0.11 0.32999-0.41 0.54999-0.74 0.54999z"/>
</svg>
